icons/exclamation-triangle-outline.svg

<svg width="24" height="24" viewBox="0 0 24 24" fill="none" xmlns="http://www.w3.org/2000/svg">
<path d="M12.922 2.622C12.496 1.792 11.504 1.792 11.078 2.622L2.168 19.976C1.714 20.856 2.235 22 3.089 22H20.911C21.765 22 22.286 20.856 21.833 19.976L12.923 2.622H12.922ZM12.007 5.502L19.5 20H4.502L12.007 5.502ZM10.5 17.5C10.5 17.8978 10.658 18.2794 10.9393 18.5607C11.2206 18.842 11.6022 19 12 19C12.3978 19 12.7794 18.842 13.0607 18.5607C13.342 18.2794 13.5 17.8978 13.5 17.5C13.5 17.1022 13.342 16.7206 13.0607 16.4393C12.7794 16.158 12.3978 16 12 16C11.6022 16 11.2206 16.158 10.9393 16.4393C10.658 16.7206 10.5 17.1022 10.5 17.5ZM11 14C11 14.666 11.334 15 12 15C12.667 15 13 14.666 13 14V10C13 9.333 12.667 9 12 9C11.334 9 11 9.333 11 10V14Z" fill="#3A3A47"/>
</svg>

<svg xmlns="http://www.w3.org/2000/svg" width="24" height="24" viewBox="0 0 24 24">
    <path fill="#3A3A47" fill-rule="evenodd" d="M12.922 2.622c-.426-.83-1.418-.83-1.844 0l-8.91 17.354c-.454.88.067 2.024.921 2.024h17.822c.854 0 1.375-1.144.922-2.024l-8.91-17.354zm-.915 2.88L19.5 20H4.502l7.505-14.498zM12 16a1.5 1.5 0 1 0 0 3 1.5 1.5 0 0 0 0-3zm0-7c-.666 0-1 .333-1 1v4c0 .666.334 1 1 1 .667 0 1-.334 1-1v-4c0-.667-.333-1-1-1z"/>
</svg>
